X:846
T:Whiskey Before Breakfast - D
S:Karl Moore - Peach Bottom String Band
Z:Converted from Nottingham Database format by Philip Rowe
F:http://abc.musicaviva.com/tunes/canada/whisky-before/whisky-before-1.abc
%Posted Oct 16th 1999 at abcusers by Philip Rowe in reply to a request from Rod
%Smith for "old time tunes". See "Done Gone" for more information.
M:4/4
L:1/4
K:D
F/E/|:"D"D/E/F/G/AA|"D"A/B/A/G/ F/E/D|\
"G"[GB][G/B/][G/B/]"D"[FA][FA]|"A"E/F/E/D/ C/B,/A,|
|:"D"D/F/A/c/dd-|d/B/A/G/ F/E/D/F/|"Em"G/B/ee3/f/|

